icon-themes/sifr_svg/cmd/lc_editannotation.svg

<svg viewBox="0 0 24 24" xmlns="http://www.w3.org/2000/svg"><path d="m20.8 0-1.6 1.6230469c1.06699 1.0643895 2.133658 2.1298828 3.200391 3.1953125l1.599609-1.6183594c0-.1949875.003499-.4140158-.050781-.6257812-.03627-.1767787-.135059-.3351893-.199219-.5-.388757-.9986454-1.227971-1.7769258-2.300781-1.9960938-.215441-.039035-.4569-.03578095-.649219-.078125zm-18.8 2v16h3v4h.5l4.859375-4h11.640625v-11.3691406c-.666464.6655674-1.333443 1.3306188-2 1.9960937v7.3730469h-7.384766c-.333962.333355-.668002.666633-1.001953 1h-3.2929685l-1.3203125 1v-1-1h-3v-12h11.40625c.667915-.6667202 1.335821-1.33345 2.003906-2zm15.6 1.2-9.6 9.6v3.2h3.2l9.6-9.6z" fill="#555753"/></svg>

<svg xmlns="http://www.w3.org/2000/svg" viewBox="0 0 24 24">
  <path
     style="fill:#555753"
     d="M 20.8 0 L 19.2 1.6230469 C 20.26699 2.6874364 21.333658 3.7529297 22.400391 4.8183594 L 24 3.2 C 24 3.0050125 24.003499 2.7859842 23.949219 2.5742188 C 23.912949 2.3974401 23.81416 2.2390295 23.75 2.0742188 C 23.361243 1.0755734 22.522029 0.297293 21.449219 0.078125 C 21.233778 0.03909 20.992319 0.04234405 20.8 0 z M 2 2 L 2 18 L 5 18 L 5 22 L 5.5 22 L 10.359375 18 L 22 18 L 22 6.6308594 C 21.333536 7.2964268 20.666557 7.9614782 20 8.6269531 L 20 16 L 12.615234 16 C 12.281272 16.333355 11.947232 16.666633 11.613281 17 L 8.3203125 17 L 7 18 L 7 17 L 7 16 L 4 16 L 4 4 L 15.40625 4 C 16.074165 3.3332798 16.742071 2.66655 17.410156 2 L 2 2 z M 17.6 3.2 L 8 12.8 L 8 16 L 11.2 16 L 20.8 6.4 L 17.6 3.2 z "
     />
</svg>
